X:45
T: Rache im Zweikampf
N: Q2097A
O: Mitteleuropa, franzoesische Schweiz, Jura
N: Schweizerische Fassung der Ballade.
R: Ballade, Frau in Maennerkleidung, Soldat, Betrug, Rache
M: 6/8
L: 1/8
K: C
 | cBcdcB | ABAG2G |
cBcdcB | ABAG2
A | G2FE3 | cdefgd | ccA
G2F | E3eee | dcBc3

@@@ Tune index: 1338
